src/assets/svgs/footer-clock.svg

<svg xmlns="http://www.w3.org/2000/svg" width="20" height="20" viewBox="0 0 20 20" fill="none">
<path d="M9.16671 1.66675C7.51853 1.66675 5.90737 2.15549 4.53696 3.07117C3.16655 3.98685 2.09845 5.28834 1.46771 6.81105C0.836985 8.33377 0.671957 10.0093 0.9935 11.6258C1.31504 13.2423 2.10872 14.7272 3.27415 15.8926C4.43959 17.0581 5.92445 17.8518 7.54096 18.1733C9.15747 18.4948 10.833 18.3298 12.3557 17.6991C13.8785 17.0683 15.1799 16.0002 16.0956 14.6298C17.0113 13.2594 17.5 11.6483 17.5 10.0001C17.5 8.90573 17.2845 7.8221 16.8657 6.81105C16.4469 5.80001 15.8331 4.88135 15.0593 4.10752C14.2854 3.3337 13.3668 2.71987 12.3557 2.30109C11.3447 1.8823 10.2611 1.66675 9.16671 1.66675V1.66675ZM9.16671 16.6667C7.84817 16.6667 6.55924 16.2758 5.46291 15.5432C4.36658 14.8107 3.5121 13.7695 3.00751 12.5513C2.50293 11.3331 2.37091 9.99269 2.62814 8.69948C2.88538 7.40627 3.52032 6.21839 4.45267 5.28604C5.38502 4.35369 6.5729 3.71875 7.86611 3.46151C9.15932 3.20428 10.4998 3.3363 11.7179 3.84088C12.9361 4.34547 13.9773 5.19995 14.7098 6.29628C15.4424 7.39261 15.8334 8.68154 15.8334 10.0001C15.8334 11.7682 15.131 13.4639 13.8808 14.7141C12.6305 15.9644 10.9348 16.6667 9.16671 16.6667V16.6667ZM9.16671 5.00008C8.9457 5.00008 8.73374 5.08788 8.57746 5.24416C8.42118 5.40044 8.33338 5.6124 8.33338 5.83341V9.51675L6.58338 10.5251C6.42284 10.6161 6.29704 10.7577 6.22569 10.9279C6.15435 11.0981 6.1415 11.2871 6.18917 11.4654C6.23683 11.6436 6.3423 11.801 6.48905 11.9129C6.63581 12.0247 6.81553 12.0847 7.00004 12.0834C7.14602 12.0844 7.28971 12.0471 7.41671 11.9751L9.58338 10.7251L9.65838 10.6501L9.79171 10.5417C9.8243 10.5005 9.85224 10.4558 9.87504 10.4084C9.9022 10.3637 9.92455 10.3162 9.94171 10.2667C9.96438 10.2138 9.97844 10.1575 9.98338 10.1001C9.98338 10.1001 10 10.0001 10 10.0001V5.83341C10 5.6124 9.91225 5.40044 9.75597 5.24416C9.59969 5.08788 9.38772 5.00008 9.16671 5.00008Z" fill="#BABABA"/>
</svg>

<svg xmlns="http://www.w3.org/2000/svg" width="20" height="20" fill="none"><path d="M9.167 1.667a8.333 8.333 0 1 0 0 16.666 8.333 8.333 0 0 0 0-16.666Zm0 15a6.666 6.666 0 1 1 0-13.333 6.666 6.666 0 0 1 0 13.333ZM9.167 5a.833.833 0 0 0-.834.833v3.684l-1.75 1.008A.833.833 0 0 0 7 12.083a.833.833 0 0 0 .417-.108l2.166-1.25.075-.075.134-.108a.713.713 0 0 0 .083-.134.74.74 0 0 0 .067-.141.54.54 0 0 0 .041-.167L10 10V5.833A.833.833 0 0 0 9.167 5Z" fill="#BABABA"/></svg>
